X:452
T:Reel 452
M:4/4
K:Amaj
L:1/8
ED|CA,B,G, E,A,A,C|B,CDC B,G,E,D|CA,B,G, E,A,A,2||FDB,G, A,2:||2A,CB,D CA,A,2|CAFG A2AB|cABG AGEA|FABG AGFE| (3FGA EC D2B,D|CA,B,G, A,2A,G| (3FGA EC D2CD|EAFG AGAF|EDB,C A,2|
